X: 23
T: Flodigarry Island
C:Phil Cunningham
M:C
L:1/8
K:BMin
||F>A A>F A2 F>A|B2 A>B d2 e2|f>a a>f e2 e>f|e>d (3BAF A2 A2|
F>A A>F A2 F>A| B2 A>B d2 e2| f>a a>f e2 e>f| e>d B<A B2 B2 :||
||e2 e>f B>B B>c|d>e (3dBF A2 A2|e2 e>f B>B B>c|d>e(3dBF A2 A2|
e2 e>f e>d B>c|d>f a<f e2 e>A|F>A (3AAA B<d d>f|e>f (3edB d2 d2 :|
|| F>A (3AAA B<d d>f| e>f (3edB d>e (3dBA|F>A (3AAA B<d d>f|e>d e<f a2 a2|
F>A (3AAA B<d d>f| e>f (3edB d>e (3dBA |f2 e>d e<f a2|f>e d<B A2 A2 :||

%%sep 2 1 500

